Obsidian-SemiLight/actions/24s/im-icq.svg

<svg viewBox="0 0 24 24" xmlns="http://www.w3.org/2000/svg"><path d="m12 4a1.9999995 3 0 0 0 -2 3 1.9999995 3 0 0 0 .005859.1855469 3 1.9999995 45 0 0 -.1269528-.1347657 3 1.9999995 45 0 0 -3.5351562-.7070312 3 1.9999995 45 0 0 .7070312 3.5351562 3 1.9999995 45 0 0 .1328126.1269528 3 1.9999995 0 0 0 -.1835938-.005859 3 1.9999995 0 0 0 -3 2 3 1.9999995 0 0 0 3 2 3 1.9999995 0 0 0 .1855469-.005859 1.9999995 3 45 0 0 -.1347657.126953 1.9999995 3 45 0 0 -.7070312 3.535156 1.9999995 3 45 0 0 3.5351562-.707031 1.9999995 3 45 0 0 .1269528-.132813 1.9999995 3 0 0 0 -.005859.183594 1.9999995 3 0 0 0 2 3 1.9999995 3 0 0 0 2-3 1.9999995 3 0 0 0 -.005859-.185547 3 1.9999995 45 0 0 .126953.134766 3 1.9999995 45 0 0 3.535156.707031 3 1.9999995 45 0 0 -.707031-3.535156 3 1.9999995 45 0 0 -.132813-.126953 3 1.9999995 0 0 0 .183594.005859 3 1.9999995 0 0 0 3-2 3 1.9999995 0 0 0 -3-2 3 1.9999995 0 0 0 -.185547.005859 1.9999995 3 45 0 0 .134766-.1269528 1.9999995 3 45 0 0 .707031-3.5351562 1.9999995 3 45 0 0 -3.535156.7070312 1.9999995 3 45 0 0 -.126953.1328126 1.9999995 3 0 0 0 .005859-.1835938 1.9999995 3 0 0 0 -2-3zm.994141 5.5976562a1.9999995 3 45 0 0 .419921.9882818 1.9999995 3 45 0 0 .986329.419921 3 1.9999995 0 0 0 -.400391.994141 3 1.9999995 0 0 0 .402344.994141 3 1.9999995 45 0 0 -.988282.419921 3 1.9999995 45 0 0 -.419921.986329 1.9999995 3 0 0 0 -.994141-.400391 1.9999995 3 0 0 0 -.994141.400391 1.9999995 3 45 0 0 -.419921-.986329 1.9999995 3 45 0 0 -.9863286-.419921 3 1.9999995 0 0 0 .4003906-.994141 3 1.9999995 0 0 0 -.4003906-.994141 3 1.9999995 45 0 0 .9863286-.419921 3 1.9999995 45 0 0 .419921-.9863286 1.9999995 3 0 0 0 .994141.4003906 1.9999995 3 0 0 0 .994141-.4023438zm-.994141 1.4023438c-.554 0-1 .446-1 1s.446 1 1 1 1-.446 1-1-.446-1-1-1z" fill="#4d4d4d"/></svg>

<svg xmlns="http://www.w3.org/2000/svg" viewBox="0 0 24 24">
  <defs id="defs3051">
    <style type="text/css" id="current-color-scheme">
      .ColorScheme-Text {
        color:#4d4d4d;
      }
      </style>
  </defs>
 <path style="fill:currentColor;fill-opacity:1;stroke:none" 
     d="M 12 4 A 1.9999995 3 0 0 0 10 7 A 1.9999995 3 0 0 0 10.005859 7.1855469 A 3 1.9999995 45 0 0 9.8789062 7.0507812 A 3 1.9999995 45 0 0 6.34375 6.34375 A 3 1.9999995 45 0 0 7.0507812 9.8789062 A 3 1.9999995 45 0 0 7.1835938 10.005859 A 3 1.9999995 0 0 0 7 10 A 3 1.9999995 0 0 0 4 12 A 3 1.9999995 0 0 0 7 14 A 3 1.9999995 0 0 0 7.1855469 13.994141 A 1.9999995 3 45 0 0 7.0507812 14.121094 A 1.9999995 3 45 0 0 6.34375 17.65625 A 1.9999995 3 45 0 0 9.8789062 16.949219 A 1.9999995 3 45 0 0 10.005859 16.816406 A 1.9999995 3 0 0 0 10 17 A 1.9999995 3 0 0 0 12 20 A 1.9999995 3 0 0 0 14 17 A 1.9999995 3 0 0 0 13.994141 16.814453 A 3 1.9999995 45 0 0 14.121094 16.949219 A 3 1.9999995 45 0 0 17.65625 17.65625 A 3 1.9999995 45 0 0 16.949219 14.121094 A 3 1.9999995 45 0 0 16.816406 13.994141 A 3 1.9999995 0 0 0 17 14 A 3 1.9999995 0 0 0 20 12 A 3 1.9999995 0 0 0 17 10 A 3 1.9999995 0 0 0 16.814453 10.005859 A 1.9999995 3 45 0 0 16.949219 9.8789062 A 1.9999995 3 45 0 0 17.65625 6.34375 A 1.9999995 3 45 0 0 14.121094 7.0507812 A 1.9999995 3 45 0 0 13.994141 7.1835938 A 1.9999995 3 0 0 0 14 7 A 1.9999995 3 0 0 0 12 4 z M 12.994141 9.5976562 A 1.9999995 3 45 0 0 13.414062 10.585938 A 1.9999995 3 45 0 0 14.400391 11.005859 A 3 1.9999995 0 0 0 14 12 A 3 1.9999995 0 0 0 14.402344 12.994141 A 3 1.9999995 45 0 0 13.414062 13.414062 A 3 1.9999995 45 0 0 12.994141 14.400391 A 1.9999995 3 0 0 0 12 14 A 1.9999995 3 0 0 0 11.005859 14.400391 A 1.9999995 3 45 0 0 10.585938 13.414062 A 1.9999995 3 45 0 0 9.5996094 12.994141 A 3 1.9999995 0 0 0 10 12 A 3 1.9999995 0 0 0 9.5996094 11.005859 A 3 1.9999995 45 0 0 10.585938 10.585938 A 3 1.9999995 45 0 0 11.005859 9.5996094 A 1.9999995 3 0 0 0 12 10 A 1.9999995 3 0 0 0 12.994141 9.5976562 z M 12 11 C 11.446 11 11 11.446 11 12 C 11 12.554 11.446 13 12 13 C 12.554 13 13 12.554 13 12 C 13 11.446 12.554 11 12 11 z "
     class="ColorScheme-Text"
     />
</svg>
